src/assets/duotone/MiniMusicSqaure.svg

<svg width="24" height="24" viewBox="0 0 24 24"  xmlns="http://www.w3.org/2000/svg">
<path opacity="0.4" d="M20.7098 17.52C20.3398 18.74 19.6098 19.68 18.5698 20.26C18.5298 20.1 18.5098 19.93 18.5098 19.76C18.5098 18.54 19.4998 17.54 20.7098 17.52Z" />
<path opacity="0.4" d="M21 7.52002V15.48C21 15.7 20.99 15.91 20.98 16.12L17.53 17.07V20.71C17.06 20.86 16.55 20.95 15.99 20.98C16.02 20.91 16.03 20.84 16.03 20.76C16.03 20.35 15.69 20.02 15.29 20.02C14.88 20.02 14.54 20.35 14.54 20.76C14.54 20.84 14.55 20.93 14.59 21H7.52C4.07 21 2 18.94 2 15.48V7.52002C2 4.06002 4.07 2 7.52 2H15.48C18.93 2 21 4.06002 21 7.52002Z" />
<path d="M22.31 12.25C22.05 12.06 21.63 11.86 21 11.92C20.84 11.93 20.67 11.96 20.48 12.01L17.5 12.8301C16.61 13.0601 16.03 13.81 16.03 14.74V18.6501C15.8 18.5701 15.55 18.5201 15.29 18.5201C14.05 18.5201 13.04 19.52 13.04 20.76C13.04 20.84 13.04 20.92 13.05 21C13.17 22.12 14.13 23 15.29 23C16.51 23 17.5 22.01 17.52 20.8C17.52 20.78 17.53 20.77 17.53 20.76V17.07L20.98 16.12L21.5 15.98V17.66C21.27 17.58 21.02 17.5201 20.75 17.5201H20.71C19.5 17.5401 18.51 18.54 18.51 19.76C18.51 19.93 18.53 20.1 18.57 20.26C18.8 21.26 19.69 22.01 20.75 22.01C21.98 22.01 22.97 21.02 22.99 19.8C22.99 19.79 23 19.78 23 19.76V13.93C23 13.17 22.77 12.61 22.31 12.25ZM15.29 21.5C14.96 21.5 14.68 21.29 14.59 21C14.55 20.93 14.54 20.84 14.54 20.76C14.54 20.35 14.88 20.0201 15.29 20.0201C15.69 20.0201 16.03 20.35 16.03 20.76C16.03 20.84 16.02 20.91 15.99 20.98C15.9 21.28 15.62 21.5 15.29 21.5ZM20.75 20.51C20.35 20.51 20.01 20.17 20.01 19.76C20.01 19.36 20.35 19.0201 20.75 19.0201C21.16 19.0201 21.5 19.36 21.5 19.76C21.5 20.17 21.16 20.51 20.75 20.51Z" />
</svg>

<?xml version="1.0" encoding="UTF-8"?>
<svg width="24" height="24" viewBox="0 0 24 24" xmlns="http://www.w3.org/2000/svg">
 <path d="m20.71 17.52c-0.37 1.22-1.1 2.16-2.14 2.74-0.04-0.16-0.06-0.33-0.06-0.5 0-1.22 0.99-2.22 2.2-2.24z" opacity=".4"/>
 <path d="m21 7.52v7.96c0 0.22-0.01 0.43-0.02 0.64l-3.45 0.95v3.64c-0.47 0.15-0.98 0.24-1.54 0.27 0.03-0.07 0.04-0.14 0.04-0.22 0-0.41-0.34-0.74-0.74-0.74-0.41 0-0.75 0.33-0.75 0.74 0 0.08 0.01 0.17 0.05 0.24h-7.07c-3.45 0-5.52-2.06-5.52-5.52v-7.96c0-3.46 2.07-5.52 5.52-5.52h7.96c3.45 0 5.52 2.06 5.52 5.52z" opacity=".4"/>
 <path d="m22.31 12.25c-0.26-0.19-0.68-0.39-1.31-0.33-0.16 0.01-0.33 0.04-0.52 0.09l-2.98 0.8201c-0.89 0.23-1.47 0.9799-1.47 1.9099v3.9101c-0.23-0.08-0.48-0.13-0.74-0.13-1.24 0-2.25 0.9999-2.25 2.2399 0 0.08 0 0.16 0.01 0.24 0.12 1.12 1.08 2 2.24 2 1.22 0 2.21-0.99 2.23-2.2 0-0.02 0.01-0.03 0.01-0.04v-3.69l3.45-0.95 0.52-0.14v1.68c-0.23-0.08-0.48-0.1399-0.75-0.1399h-0.04c-1.21 0.02-2.2 1.0199-2.2 2.2399 0 0.17 0.02 0.34 0.06 0.5 0.23 1 1.12 1.75 2.18 1.75 1.23 0 2.22-0.99 2.24-2.21 0-0.01 0.01-0.02 0.01-0.04v-5.83c0-0.76-0.23-1.32-0.69-1.68zm-7.02 9.25c-0.33 0-0.61-0.21-0.7-0.5-0.04-0.07-0.05-0.16-0.05-0.24 0-0.41 0.34-0.7399 0.75-0.7399 0.4 0 0.74 0.3299 0.74 0.7399 0 0.08-0.01 0.15-0.04 0.22-0.09 0.3-0.37 0.52-0.7 0.52zm5.46-0.99c-0.4 0-0.74-0.34-0.74-0.75 0-0.4 0.34-0.7399 0.74-0.7399 0.41 0 0.75 0.3399 0.75 0.7399 0 0.41-0.34 0.75-0.75 0.75z"/>
</svg>
